svg/ricky/sitting/emotion/lookingup.svg

<?xml version="1.0" encoding="UTF-8"?>
<svg width="500px" height="600px" viewBox="0 0 500 600" version="1.1" xmlns="http://www.w3.org/2000/svg" xmlns:xlink="http://www.w3.org/1999/xlink">
    <title>lookingup</title>
    <defs>
        <polygon id="path-1" points="0 0.454 182.162 0.454 182.162 198.107401 0 198.107401"></polygon>
    </defs>
    <g id="lookingup" stroke="none" stroke-width="1" fill="none" fill-rule="evenodd">
        <g transform="translate(169.000000, 58.000000)">
            <g id="face" transform="translate(0.000000, 0.546000)">
                <mask id="mask-2" fill="white">
                    <use xlink:href="#path-1"></use>
                </mask>
                <g id="Clip-4"></g>
                <path d="M172.4952,104.5349 C172.2272,106.0479 171.9272,107.5579 171.6162,109.0679 C171.5472,109.3019 171.4962,109.5399 171.4652,109.7829 C170.8132,112.8959 170.1032,116.0029 169.4092,119.0969 C169.0262,120.8039 168.5472,123.0969 166.9182,124.0889 C165.9882,124.6539 163.3322,124.4499 163.5592,122.8539 C163.6082,122.5109 163.4942,122.2269 163.3072,122.0129 C163.4402,113.2759 162.1382,104.6229 160.4872,95.9929 C161.0542,95.9069 161.5742,95.5839 161.9292,95.0489 C161.9982,94.9429 162.0692,94.8389 162.1422,94.7359 C162.1532,94.7209 162.1872,94.6759 162.2182,94.6339 C162.2662,94.5759 162.3242,94.5049 162.3402,94.4859 C162.4062,94.4099 162.4732,94.3349 162.5402,94.2599 C162.8652,93.9039 163.2242,93.5969 163.5812,93.2759 C163.5862,93.2709 163.5852,93.2709 163.5892,93.2669 C163.5912,93.2659 163.5922,93.2659 163.5942,93.2639 C163.6762,93.2059 163.7572,93.1459 163.8402,93.0899 C164.0262,92.9609 164.2182,92.8389 164.4122,92.7219 C164.6072,92.6049 164.8062,92.4949 165.0082,92.3909 C165.1202,92.3349 165.2332,92.2789 165.3482,92.2249 C165.3932,92.2039 165.4392,92.1819 165.4852,92.1629 C165.6202,92.1019 165.5772,92.1199 165.3552,92.2149 C165.4452,92.1019 165.8662,92.0199 165.9932,91.9769 C166.2082,91.9049 166.4262,91.8399 166.6452,91.7819 C166.8642,91.7229 167.0862,91.6729 167.3082,91.6299 C167.4072,91.6099 167.5072,91.5939 167.6062,91.5759 C167.6042,91.5749 167.5982,91.5759 167.5972,91.5739 C167.5982,91.5749 167.6052,91.5749 167.6072,91.5759 C167.6312,91.5719 167.6562,91.5669 167.6802,91.5629 C167.9672,91.5139 167.7132,91.5819 167.6242,91.5799 C167.6892,91.5879 167.8742,91.5699 168.0452,91.5509 C168.6462,91.7489 169.2172,92.0359 169.7082,92.4339 C173.2712,95.3349 173.2232,100.4239 172.4952,104.5349 M161.2832,124.2969 C161.2002,125.8999 161.0472,127.5069 160.8582,129.1099 C160.6392,129.7179 160.5672,130.3769 160.6212,131.0249 C160.3782,132.6879 160.0412,134.3349 159.6642,135.9719 C158.3252,140.1539 156.4062,144.1129 153.9712,147.7609 C153.9632,147.7519 153.9552,147.7429 153.9472,147.7339 C151.0922,150.9959 147.7302,153.8309 144.2552,156.4329 C137.7362,161.3179 130.9762,165.9069 124.2102,170.4389 C120.2022,173.1239 116.1632,175.7629 112.0982,178.3589 C111.8862,178.4949 111.7572,178.6709 111.6902,178.8589 C110.3642,179.6869 108.9972,180.4379 107.5412,181.0269 C102.1042,183.2239 96.3292,182.2229 90.9912,180.2489 C85.9742,178.3929 81.1672,175.8689 76.4032,173.4479 C67.8812,169.1179 59.4002,164.2839 52.4832,157.5979 C45.3172,150.6689 40.7262,141.9399 39.1752,132.0819 C37.5682,121.8619 38.9212,111.3819 40.3222,101.2219 C40.9892,96.3799 41.6932,91.5179 42.2202,86.6419 C47.0192,89.1969 52.1332,89.7649 55.9272,83.8619 C57.7012,81.1019 58.8522,78.0019 59.5442,74.7689 C62.2882,76.5689 65.3012,77.5269 68.6182,76.6229 C71.8372,75.7459 74.3922,73.2299 75.8502,70.3059 C77.1102,67.7789 76.8532,64.4989 78.1592,62.1129 C81.2192,63.8319 84.6022,64.9109 88.0682,65.0389 C96.0062,65.3319 100.3842,59.3059 102.8572,52.5159 C106.7642,54.5589 111.7012,54.5839 115.5462,52.3169 C115.7962,52.9449 116.0842,53.5579 116.4072,54.1559 C117.8982,58.6389 121.8502,62.1959 126.4202,63.5419 C129.4092,64.4219 132.5622,64.2709 135.4062,62.9849 C135.4702,62.9559 135.5382,62.9189 135.6032,62.8879 C135.5602,68.8059 136.8212,74.5629 141.2262,79.1479 C145.1592,83.2439 150.8262,84.8759 156.0272,83.8139 C156.0432,83.8949 156.0582,83.9769 156.0742,84.0579 C156.0782,84.1839 156.0862,84.3089 156.0902,84.4349 C156.1192,85.3179 156.3292,86.1559 156.6542,86.9399 C157.0132,88.7059 157.3732,90.4719 157.7282,92.2349 C159.8502,102.7669 161.8402,113.5059 161.2832,124.2969 M102.5172,191.1329 C100.9612,193.6609 98.6392,196.3529 95.3952,196.0899 C92.2732,195.8359 90.5792,192.7119 89.3452,190.1259 C89.4202,189.9919 89.4732,189.8389 89.4732,189.6469 L89.4732,181.8069 C92.8152,183.1189 96.2752,184.1039 99.8712,184.2859 C100.7212,184.3289 101.5472,184.2939 102.3632,184.2239 L102.3632,190.6399 C102.3632,190.8209 102.4282,190.9839 102.5172,191.1329 M36.5172,123.3419 C36.4692,123.3649 36.4212,123.3899 36.3842,123.4309 C36.2992,123.5239 36.2272,123.6529 36.2382,123.7839 C36.2412,123.8219 36.2372,123.8589 36.2352,123.8969 C36.2272,123.9329 36.2172,123.9689 36.2062,124.0039 C36.1912,124.0339 36.1742,124.0619 36.1562,124.0899 C36.1182,124.1289 36.0802,124.1679 36.0422,124.2059 C35.9612,124.2879 35.9152,124.4009 35.9042,124.5159 C35.9002,124.5159 35.8962,124.5149 35.8922,124.5139 C35.6332,124.3789 35.3142,124.3529 34.9812,124.5319 C33.1082,125.5439 31.2872,123.8279 30.1462,122.4669 C28.8012,120.8639 27.8762,118.8899 26.9272,117.0419 C24.9472,113.1829 23.2242,108.8799 23.8312,104.4589 C24.3062,100.9989 26.3012,97.2649 29.9332,96.3759 C32.8952,95.6509 36.6422,96.8909 37.5942,100.0199 C37.7192,100.4329 38.0252,100.6349 38.3562,100.6899 C37.2922,108.2229 36.3862,115.7639 36.5172,123.3419 M99.1862,3.8299 C97.7152,3.2469 96.1902,2.8029 94.6212,2.5069 C96.2192,2.6429 97.7662,3.1049 99.1862,3.8299 M182.0232,100.6849 C181.8712,99.5389 181.5482,98.4689 181.2442,97.3579 C180.8502,95.9199 181.1412,94.7439 181.4612,93.3279 C182.5072,88.6999 181.0172,83.7939 177.5942,80.5159 C180.6792,73.2679 178.8772,64.3449 173.0262,58.9869 C173.0782,57.6219 172.6672,56.4169 172.0162,55.3119 C171.5912,54.2519 170.9022,53.4059 170.0422,52.7819 C169.7542,52.4779 169.4602,52.1789 169.1622,51.8859 C169.0102,51.7369 168.8492,51.5889 168.6852,51.4379 C168.3392,48.5569 167.9762,45.6199 167.3022,42.8389 C167.2682,42.4049 167.2272,41.9719 167.1682,41.5389 C166.7272,38.2789 165.6722,34.4019 163.2762,31.9979 C161.6412,30.3569 158.9932,29.6469 156.9822,30.7429 C155.9232,28.1849 154.4302,25.7579 152.5492,23.7109 C151.5732,22.1759 150.3162,20.8309 148.6762,19.8189 C146.3262,18.3689 143.5992,18.2229 141.1572,18.9829 C140.6732,15.4699 138.3492,12.2779 134.8982,11.0209 C130.9132,9.5689 126.2502,11.2869 123.8152,14.6509 C121.5562,11.7759 118.9892,8.9399 115.4392,7.7799 C112.6982,6.8859 109.4352,7.1519 107.1322,8.9059 C107.0302,8.8079 106.9292,8.7039 106.8262,8.6099 C106.7512,8.5409 106.6692,8.4829 106.5932,8.4159 C104.1262,3.8709 99.3782,0.6849 94.1232,0.4659 C88.4872,0.2289 83.2192,3.5289 80.5492,8.3739 C76.7902,4.8589 70.7382,4.1579 66.2102,6.6229 C65.6172,6.9459 65.0612,7.3319 64.5382,7.7589 C63.9552,8.2339 63.4362,8.9799 62.7662,9.3249 C61.8282,9.8079 60.9352,9.0259 60.0922,8.6419 C59.3072,8.2849 58.4892,8.0099 57.6392,7.8499 C54.4172,7.2469 51.0172,8.0099 48.4662,10.0969 C46.2922,11.8749 44.9262,14.4959 44.5582,17.2559 C43.7052,18.3189 42.9842,19.4629 42.3832,20.6739 C38.1812,16.4309 30.0702,16.9059 26.9332,22.3049 C26.0242,23.8679 25.5992,25.6609 24.6982,27.2269 C24.3002,27.9179 23.8042,28.5729 23.0812,28.9489 C21.8832,29.5729 20.4452,29.3319 19.1512,29.2949 C15.1792,29.1789 12.1472,31.5749 10.8752,35.2979 C9.6242,38.9619 10.6842,42.6849 12.3672,46.0489 C12.6922,46.8599 13.0792,47.6459 13.5362,48.3999 C7.8172,50.4889 5.3272,58.4129 8.2562,63.6109 C8.2982,64.0829 8.3632,64.5519 8.4532,65.0149 C3.5582,66.7519 -0.1908,71.5249 0.0072,76.8859 C0.2092,82.3099 4.3152,86.9599 9.4432,88.2889 C4.5532,94.0439 6.4622,102.9229 10.1152,108.9789 C11.3132,110.9659 12.8262,112.6549 14.3192,114.4179 C16.1262,116.5509 17.0292,118.7769 17.7302,121.4559 C18.8922,125.9019 20.9642,129.7799 24.5662,132.7319 C28.3932,135.8689 33.2372,137.6469 38.2052,137.4259 C38.2452,137.4239 38.2722,137.4049 38.3102,137.3999 C39.9722,143.6499 42.8182,149.5049 47.0262,154.6379 C53.2312,162.2059 61.5792,167.7299 70.0892,172.3859 C74.4812,174.7879 78.9772,177.0039 83.4942,179.1609 C84.8322,179.7999 86.1912,180.4299 87.5682,181.0219 C87.5092,181.1459 87.4732,181.2899 87.4732,181.4579 L87.4732,189.2769 C87.2052,189.5649 87.0762,189.9859 87.2862,190.4329 C88.9082,193.8799 91.1402,197.7909 95.3952,198.0899 C99.5702,198.3829 102.6102,194.9449 104.5252,191.6759 C104.7902,191.2229 104.6532,190.7959 104.3632,190.5139 L104.3632,183.9459 C107.8282,183.2749 111.0142,181.6999 114.0422,179.6859 C113.9932,179.6509 113.9532,179.6029 113.9062,179.5649 C120.9492,175.0529 127.9132,170.4159 134.7812,165.6389 C141.0662,161.2679 147.6052,156.9679 153.0982,151.5959 C153.4862,151.2159 153.8412,150.8029 154.2152,150.4089 C154.4562,150.3649 154.6882,150.2359 154.8642,149.9889 C155.0942,149.6669 155.3122,149.3369 155.5332,149.0089 C155.5572,148.9809 155.5842,148.9569 155.6082,148.9299 C155.6032,148.9269 155.5982,148.9249 155.5932,148.9219 C157.8512,145.5669 159.6802,141.9399 161.0432,138.1349 C161.0972,138.1569 161.1532,138.1679 161.2062,138.1909 C161.3602,137.5979 161.4912,137.0009 161.6262,136.4039 C161.6792,136.2379 161.7382,136.0739 161.7892,135.9079 C161.8252,135.7889 161.8232,135.6829 161.8202,135.5779 C161.8272,135.5469 161.8362,135.5149 161.8422,135.4839 C161.9402,135.5259 162.0372,135.5679 162.1582,135.5799 C166.3062,135.9779 170.1362,134.0479 173.0912,131.2559 C176.1862,128.3299 179.1072,124.1069 179.6782,119.8079 C179.8122,118.7979 179.7932,117.7699 179.5532,116.7749 C179.2712,115.6029 178.3352,114.5099 178.6462,113.2689 C178.9012,112.2509 179.7282,111.3509 180.2252,110.4409 C180.7872,109.4089 181.2352,108.3019 181.5562,107.1719 C182.1532,105.0729 182.3092,102.8469 182.0232,100.6849" id="Fill-3" fill="#231F20" mask="url(#mask-2)"></path>
            </g>
            <g id="eyes" transform="translate(61.164635, 83.828107)" fill="#231F20">
                <path d="M30.1682649,29.771393 C29.4392649,34.419393 27.4342649,39.429393 23.9252649,42.681393 C19.7422649,46.557393 13.8872649,45.225393 10.3722649,41.155393 C7.15126486,37.426393 5.78826486,32.153393 5.78022852,27.312393 C5.77126486,22.039393 7.43426486,16.779393 10.5482649,12.516393 C10.8962649,12.526393 11.2362649,12.564393 11.5642649,12.631393 C11.5892649,12.586393 11.6172649,12.545393 11.6362649,12.493393 C12.8892649,9.02439299 17.9672649,8.62239299 20.9842649,9.43239299 C23.8672649,10.207393 26.0382649,12.104393 27.4112649,14.605393 C27.1932649,14.880393 27.1282649,15.259393 27.3852649,15.650393 C27.9442649,16.498393 28.4022649,17.390393 28.8032649,18.304393 C28.9252649,18.795393 29.0352649,19.292393 29.1342649,19.790393 L29.3532649,19.713393 C30.4552649,22.914393 30.7002649,26.382393 30.1682649,29.771393 M30.6732649,17.533393 C29.9302649,14.706393 28.6282649,11.961393 26.3682649,10.048393 C24.0722649,8.10339299 21.0752649,7.02339299 18.0632649,7.06739299 C15.3462649,7.10639299 12.3722649,8.06839299 10.6812649,10.213393 C10.3472649,10.020393 9.93126486,10.030393 9.61226486,10.436393 C2.81826486,19.079393 1.35626486,32.703393 8.30026486,41.755393 C11.6572649,46.134393 17.6872649,48.688393 22.8702649,45.896393 C27.5942649,43.351393 30.3682649,37.585393 31.6262649,32.596393 C32.8832649,27.609393 32.7222649,22.230393 30.6732649,17.533393" id="Fill-8"></path>
                <path d="M53.8239649,19.713693 C53.8969649,19.738693 53.9699649,19.764693 54.0429649,19.789693 C54.1419649,19.291693 54.2519649,18.795693 54.3739649,18.304693 C54.7749649,17.390693 55.2329649,16.497693 55.7919649,15.650693 C56.0499649,15.259693 55.9849649,14.880693 55.7659649,14.605693 C57.1399649,12.104693 59.3099649,10.206693 62.1929649,9.43269299 C65.2099649,8.62169299 70.2879649,9.02469299 71.5409649,12.492693 C71.5599649,12.545693 71.5879649,12.586693 71.6129649,12.631693 C71.9419649,12.564693 72.2809649,12.526693 72.6289649,12.516693 C75.7429649,16.778693 77.4069649,22.038693 77.3970097,27.312693 C77.3889649,32.152693 76.0259649,37.426693 72.8049649,41.154693 C69.2899649,45.225693 63.4349649,46.557693 59.2519649,42.681693 C55.7429649,39.429693 53.7389649,34.419693 53.0089649,29.771693 C52.4779649,26.382693 52.7219649,22.913693 53.8239649,19.713693 M51.5519649,32.596693 C52.8089649,37.585693 55.5839649,43.351693 60.3069649,45.896693 C65.4909649,48.688693 71.5199649,46.134693 74.8779649,41.755693 C81.8209649,32.702693 80.3589649,19.078693 73.5649649,10.436693 C73.2459649,10.029693 72.8309649,10.020693 72.4959649,10.213693 C70.8059649,8.06769299 67.8319649,7.10669299 65.1139649,7.06769299 C62.1019649,7.02369299 59.1049649,8.10369299 56.8089649,10.048693 C54.5489649,11.961693 53.2469649,14.705693 52.5049649,17.532693 C50.4559649,22.230693 50.2939649,27.609693 51.5519649,32.596693" id="Fill-10"></path>
                <path d="M13.7394649,0.899292994 C8.48546486,2.21929299 3.70046486,5.19129299 0.20646486,9.33229299 C-0.47353514,10.137293 0.68646486,11.308293 1.37046486,10.497293 C4.69646486,6.55529299 9.17446486,3.74529299 14.1774649,2.48729299 C15.2044649,2.22929299 14.7694649,0.640292994 13.7394649,0.899292994" id="Fill-12"></path>
                <path d="M76.7900649,4.56429299 C72.7180649,1.05629299 67.2560649,0.352292994 62.0860649,0.00229299429 C61.0280649,-0.0697070057 61.0320649,1.57729299 62.0860649,1.64829299 C66.7740649,1.96629299 71.9210649,2.53729299 75.6250649,5.72829299 C76.4250649,6.41729299 77.5950649,5.25629299 76.7900649,4.56429299" id="Fill-14"></path>
                <path d="M25.3715649,17.016493 C25.3485649,16.915493 25.3055649,16.819493 25.2785649,16.719493 C25.3475649,15.387493 25.1265649,15.076493 24.6605649,13.860493 C24.5215649,13.196493 24.3445649,11.543493 24.1075649,10.920493 C23.2555649,8.68649299 21.4435649,6.59149299 18.8125649,7.04349299 C17.7775649,7.22149299 16.8875649,7.75649299 16.1315649,8.46549299 C15.2585649,8.95449299 14.4735649,9.62049299 13.8305649,10.434493 C12.9155649,11.592493 12.3655649,12.951493 12.0865649,14.376493 C11.4705649,16.370493 11.4475649,18.568493 11.9115649,20.585493 C12.2605649,22.101493 13.0315649,23.599493 14.1595649,24.633493 C14.3665649,24.900493 14.5875649,25.156493 14.8315649,25.396493 C15.9635649,26.511493 17.4895649,27.075493 18.9905649,26.931493 C19.9535649,26.936493 20.9345649,26.684493 21.8645649,26.092493 C24.8005649,24.224493 26.1335649,20.340493 25.3715649,17.016493" id="Fill-18"></path>
                <path d="M69.6108649,10.867993 C66.4688649,8.24599299 61.6158649,9.44699299 59.2178649,12.501993 C58.4298649,13.505993 57.9588649,14.622993 57.7378649,15.781993 C56.8058649,16.700993 56.7188649,18.158993 57.0498649,19.489993 C57.0698649,20.854993 57.3968649,22.214993 58.0778649,23.408993 C58.5298649,24.200993 59.1268649,24.887993 59.8068649,25.477993 C59.9048649,25.576993 59.9898649,25.687993 60.0948649,25.777993 C60.6798649,26.281993 61.3298649,26.635993 62.0088649,26.872993 C63.0728649,27.333993 64.2258649,27.590993 65.3928649,27.5831743 C65.4748649,27.5831743 65.5368649,27.553993 65.6088649,27.537993 C65.9688649,27.514993 66.3318649,27.468993 66.6958649,27.367993 C68.6768649,26.817993 70.1728649,25.177993 71.0518649,23.378993 C72.8788649,19.640993 73.0898649,13.770993 69.6108649,10.867993" id="Fill-20"></path>
            </g>
            <path d="M109.9225,134.1102 C109.8375,133.5772 109.1715,133.2802 108.6925,133.4122 C108.1235,133.5682 107.9085,134.1072 107.9935,134.6422 C108.3925,137.1482 106.3585,139.8442 103.8585,140.2002 C101.2335,140.5742 98.5355,138.3232 98.3515,135.7012 C98.2625,134.4232 96.2615,134.4142 96.3515,135.7012 C96.5585,138.6612 98.7465,141.2382 101.6105,142.0072 C104.5005,142.7842 107.4285,141.3602 108.9745,138.8752 C109.8675,137.4382 110.1865,135.7732 109.9225,134.1102" id="nose" fill="#231F20"></path>
            <path d="M116.1497,153.4364 C113.0457,158.8734 107.0407,162.4564 100.7437,162.3744 C94.5767,162.2924 88.7627,158.7024 85.7487,153.3634 C85.1157,152.2424 83.3877,153.2494 84.0217,154.3724 C87.3787,160.3204 93.8877,164.2844 100.7437,164.3744 C107.7267,164.4644 114.4327,160.4794 117.8767,154.4454 C118.5157,153.3254 116.7887,152.3174 116.1497,153.4364" id="mouth" fill="#231F20"></path>
        </g>
    </g>
</svg>

<svg width="500" height="600" xmlns="http://www.w3.org/2000/svg" xmlns:xlink="http://www.w3.org/1999/xlink"><defs><path id="a" d="M0 .454h182.162v197.653H0z"/></defs><g fill="none" fill-rule="evenodd"><g transform="translate(169 58.546)"><mask id="b" fill="#fff"><use xlink:href="#a"/></mask><path d="M172.495 104.535a166.116 166.116 0 01-.879 4.533c-.069.234-.12.472-.15.715-.653 3.113-1.363 6.22-2.057 9.314-.383 1.707-.862 4-2.49 4.992-.93.565-3.587.36-3.36-1.235a1.024 1.024 0 00-.252-.841c.133-8.737-1.169-17.39-2.82-26.02a2.104 2.104 0 001.442-.944c.07-.106.14-.21.213-.313l.076-.102.122-.148.2-.226c.325-.356.684-.663 1.041-.984l.008-.01c.002 0 .003 0 .005-.002.082-.058.163-.118.246-.174a10.696 10.696 0 011.508-.865c.045-.021.091-.043.137-.062.135-.061.092-.043-.13.052.09-.113.511-.195.638-.238a10.606 10.606 0 011.315-.347c.1-.02.2-.036.298-.054-.002-.001-.008 0-.009-.002.001 0 .008 0 .01.002.024-.004.05-.01.073-.013.287-.05.033.019-.056.017.065.008.25-.01.421-.03a5.22 5.22 0 011.663.884c3.563 2.9 3.515 7.99 2.787 12.1m-11.212 19.763a73.72 73.72 0 01-.425 4.813 4.551 4.551 0 00-.237 1.915c-.243 1.663-.58 3.31-.957 4.947a47.089 47.089 0 01-5.693 11.789l-.024-.027c-2.855 3.262-6.217 6.097-9.692 8.699-6.519 4.885-13.279 9.474-20.045 14.006a660.568 660.568 0 01-12.112 7.92.98.98 0 00-.408.5c-1.326.828-2.693 1.579-4.149 2.168-5.437 2.197-11.212 1.196-16.55-.778-5.017-1.856-9.824-4.38-14.588-6.801-8.522-4.33-17.003-9.164-23.92-15.85-7.166-6.93-11.757-15.658-13.308-25.516-1.607-10.22-.254-20.7 1.147-30.86.667-4.842 1.371-9.704 1.898-14.58 4.8 2.555 9.913 3.123 13.707-2.78 1.774-2.76 2.925-5.86 3.617-9.093 2.744 1.8 5.757 2.758 9.074 1.854 3.22-.877 5.774-3.393 7.232-6.317 1.26-2.527 1.003-5.807 2.31-8.193 3.06 1.719 6.442 2.798 9.908 2.926 7.938.293 12.316-5.733 14.79-12.523 3.906 2.043 8.843 2.068 12.688-.2.25.629.538 1.242.861 1.84 1.491 4.483 5.443 8.04 10.013 9.386 2.99.88 6.142.729 8.986-.557.064-.03.132-.066.197-.097-.043 5.918 1.218 11.675 5.623 16.26 3.933 4.096 9.6 5.728 14.801 4.666l.047.244c.004.126.012.25.016.377.03.883.24 1.72.564 2.505.36 1.766.72 3.532 1.074 5.295 2.122 10.532 4.112 21.27 3.555 32.062m-58.766 66.836c-1.556 2.528-3.878 5.22-7.122 4.957-3.122-.254-4.816-3.378-6.05-5.964a.95.95 0 00.128-.48v-7.84c3.342 1.313 6.802 2.298 10.398 2.48.85.043 1.676.008 2.492-.062v6.416c0 .18.065.344.154.493m-66-67.791a.409.409 0 00-.133.089c-.085.093-.157.222-.146.353.003.038 0 .075-.003.113a1.298 1.298 0 01-.029.107.917.917 0 01-.05.086 12.58 12.58 0 01-.114.116.51.51 0 00-.138.31l-.012-.002a.94.94 0 00-.91.018c-1.874 1.012-3.695-.704-4.836-2.065-1.345-1.603-2.27-3.577-3.219-5.425-1.98-3.86-3.703-8.162-3.096-12.583.475-3.46 2.47-7.194 6.102-8.083 2.962-.725 6.71.515 7.661 3.644a.92.92 0 00.762.67c-1.064 7.533-1.97 15.074-1.839 22.652M99.187 3.83a24.913 24.913 0 00-4.566-1.323c1.598.136 3.145.598 4.565 1.323m82.837 96.855c-.152-1.146-.475-2.216-.779-3.327-.394-1.438-.103-2.614.217-4.03 1.046-4.628-.444-9.534-3.867-12.812 3.085-7.248 1.283-16.171-4.568-21.53.052-1.364-.359-2.57-1.01-3.674a5.73 5.73 0 00-1.974-2.53 35.424 35.424 0 00-.88-.896c-.152-.15-.313-.297-.477-.448-.346-2.881-.709-5.818-1.383-8.6a22.804 22.804 0 00-.134-1.3c-.44-3.26-1.496-7.136-3.892-9.54-1.635-1.641-4.283-2.351-6.294-1.255-1.059-2.558-2.552-4.985-4.433-7.032-.976-1.535-2.233-2.88-3.873-3.892-2.35-1.45-5.077-1.596-7.519-.836-.484-3.513-2.808-6.705-6.259-7.962-3.985-1.452-8.648.266-11.083 3.63-2.259-2.875-4.826-5.711-8.376-6.871-2.74-.894-6.004-.628-8.307 1.126-.102-.098-.203-.202-.306-.296-.075-.07-.157-.127-.233-.194-2.467-4.545-7.215-7.731-12.47-7.95C88.487.229 83.22 3.529 80.55 8.374c-3.76-3.515-9.81-4.216-14.34-1.751-.593.323-1.149.709-1.672 1.136-.583.475-1.102 1.22-1.772 1.566-.938.483-1.83-.3-2.674-.683a10.716 10.716 0 00-2.453-.792c-3.222-.603-6.622.16-9.173 2.247-2.174 1.778-3.54 4.399-3.908 7.159a18.788 18.788 0 00-2.175 3.418c-4.202-4.243-12.313-3.768-15.45 1.63-.909 1.564-1.334 3.357-2.235 4.923-.398.69-.894 1.346-1.617 1.722-1.198.624-2.636.383-3.93.346-3.972-.116-7.004 2.28-8.276 6.003-1.25 3.664-.19 7.387 1.492 10.75a15.9 15.9 0 001.17 2.352c-5.72 2.089-8.21 10.013-5.28 15.21.041.473.106.942.196 1.405-4.895 1.737-8.644 6.51-8.446 11.87C.21 82.31 4.315 86.96 9.443 88.29c-4.89 5.755-2.98 14.634.672 20.69 1.198 1.987 2.711 3.676 4.204 5.439 1.807 2.133 2.71 4.359 3.411 7.038 1.162 4.446 3.234 8.324 6.836 11.276 3.827 3.137 8.671 4.915 13.64 4.694.04-.002.066-.021.104-.026 1.662 6.25 4.508 12.105 8.716 17.238 6.205 7.568 14.553 13.092 23.063 17.748 4.392 2.402 8.888 4.618 13.405 6.775 1.338.639 2.697 1.269 4.074 1.86a1 1 0 00-.095.437v7.819c-.268.288-.397.709-.187 1.156 1.622 3.447 3.854 7.358 8.11 7.657 4.174.293 7.214-3.145 9.13-6.414.264-.453.127-.88-.163-1.162v-6.568c3.465-.671 6.651-2.246 9.68-4.26-.05-.035-.09-.083-.137-.121a661.025 661.025 0 0020.875-13.926c6.285-4.371 12.824-8.671 18.317-14.043.388-.38.743-.793 1.117-1.187.241-.044.473-.173.65-.42.23-.322.447-.652.668-.98.024-.028.051-.052.075-.08l-.015-.007a48.79 48.79 0 005.45-10.787c.054.022.11.033.163.056.154-.593.285-1.19.42-1.787.053-.166.112-.33.163-.496a.982.982 0 00.031-.33c.007-.031.016-.063.022-.094.098.042.195.084.316.096 4.148.398 7.978-1.532 10.933-4.324 3.095-2.926 6.016-7.15 6.587-11.448.134-1.01.115-2.038-.125-3.033-.282-1.172-1.218-2.265-.907-3.506.255-1.018 1.082-1.918 1.58-2.828a16.01 16.01 0 001.797-9.756" fill="#231F20" mask="url(#b)"/></g><g fill="#231F20"><path d="M260.333 171.6c-.73 4.647-2.734 9.657-6.243 12.91-4.183 3.875-10.038 2.543-13.553-1.527-3.221-3.729-4.584-9.002-4.592-13.843-.01-5.273 1.654-10.533 4.768-14.796.348.01.688.048 1.016.115.025-.045.053-.086.072-.138 1.253-3.469 6.33-3.87 9.348-3.06 2.883.775 5.054 2.672 6.427 5.173-.218.275-.283.654-.026 1.045.559.847 1.017 1.74 1.418 2.653.122.491.232.988.33 1.486l.22-.077c1.102 3.201 1.347 6.67.815 10.058m.505-12.238c-.743-2.827-2.045-5.572-4.305-7.485a12.673 12.673 0 00-8.305-2.98c-2.717.038-5.691 1-7.382 3.145-.334-.193-.75-.183-1.07.223-6.793 8.643-8.255 22.267-1.311 31.32 3.357 4.378 9.387 6.932 14.57 4.14 4.724-2.545 7.498-8.31 8.756-13.3 1.257-4.987 1.096-10.366-.953-15.063m23.151 2.181l.219.076c.099-.498.209-.994.33-1.485.402-.914.86-1.807 1.419-2.654.258-.391.193-.77-.026-1.045 1.374-2.501 3.544-4.4 6.427-5.173 3.017-.811 8.095-.408 9.348 3.06.019.053.047.094.072.139a5.94 5.94 0 011.016-.115c3.114 4.262 4.778 9.522 4.768 14.796-.008 4.84-1.371 10.114-4.592 13.842-3.515 4.07-9.37 5.403-13.553 1.527-3.51-3.252-5.513-8.262-6.243-12.91-.531-3.39-.287-6.858.815-10.058m-2.272 12.883c1.257 4.989 4.032 10.755 8.755 13.3 5.184 2.792 11.213.238 14.57-4.141 6.944-9.053 5.482-22.677-1.312-31.32-.32-.406-.734-.415-1.07-.222-1.69-2.146-4.663-3.107-7.381-3.146a12.673 12.673 0 00-8.305 2.98c-2.26 1.914-3.562 4.658-4.304 7.485-2.05 4.698-2.211 10.077-.953 15.064m-37.813-31.698c-5.254 1.32-10.039 4.292-13.533 8.433-.68.805.48 1.976 1.164 1.165a24.626 24.626 0 0112.807-8.01c1.027-.258.592-1.847-.438-1.588m63.051 3.665c-4.072-3.508-9.534-4.212-14.704-4.562-1.058-.072-1.054 1.575 0 1.646 4.688.318 9.835.89 13.539 4.08.8.69 1.97-.472 1.165-1.164"/><path d="M255.536 158.845c-.023-.101-.066-.197-.093-.297.07-1.332-.152-1.643-.618-2.86-.139-.663-.316-2.316-.553-2.94-.852-2.233-2.664-4.328-5.295-3.876-1.035.178-1.925.713-2.68 1.422a7.785 7.785 0 00-2.302 1.969c-.915 1.158-1.465 2.517-1.744 3.942-.616 1.994-.639 4.192-.175 6.209.35 1.516 1.12 3.014 2.248 4.048.207.267.428.523.672.763 1.132 1.115 2.658 1.679 4.16 1.535a5.235 5.235 0 002.873-.84c2.936-1.867 4.27-5.751 3.507-9.075m44.239-6.149c-3.142-2.622-7.995-1.42-10.393 1.634a7.54 7.54 0 00-1.48 3.28c-.932.92-1.019 2.377-.688 3.708.02 1.365.347 2.725 1.028 3.92a8.016 8.016 0 001.73 2.068c.097.1.182.21.287.3a5.872 5.872 0 001.914 1.095 8.393 8.393 0 003.384.71c.082 0 .144-.029.216-.045.36-.023.723-.069 1.087-.17 1.981-.55 3.477-2.19 4.356-3.989 1.827-3.738 2.038-9.608-1.44-12.51"/></g><path d="M278.923 192.11c-.085-.533-.751-.83-1.23-.698-.57.156-.784.695-.7 1.23.4 2.506-1.635 5.202-4.135 5.558-2.625.374-5.323-1.877-5.507-4.499-.089-1.278-2.09-1.287-2 0 .207 2.96 2.395 5.537 5.26 6.306 2.89.777 5.818-.647 7.364-3.132a6.895 6.895 0 00.948-4.765m6.227 19.326c-3.104 5.437-9.11 9.02-15.406 8.938-6.167-.082-11.981-3.672-14.995-9.01-.633-1.122-2.361-.115-1.727 1.008 3.357 5.948 9.866 9.912 16.722 10.002 6.983.09 13.689-3.895 17.133-9.929.639-1.12-1.088-2.128-1.727-1.009" fill="#231F20"/></g></svg>
